src/assets/img/globalping/globalping-security-icon.svg

<svg width="48" height="50" viewBox="0 0 48 50" fill="none" xmlns="http://www.w3.org/2000/svg">
<path d="M22 2.1547C23.2376 1.44017 24.7624 1.44017 26 2.1547L42.7846 11.8453C44.0222 12.5598 44.7846 13.8803 44.7846 15.3094V34.6906C44.7846 36.1197 44.0222 37.4402 42.7846 38.1547L26 47.8453C24.7624 48.5598 23.2376 48.5598 22 47.8453L5.21539 38.1547C3.97779 37.4402 3.21539 36.1197 3.21539 34.6906V15.3094C3.21539 13.8803 3.97779 12.5598 5.21539 11.8453L22 2.1547Z" fill="#17D4A7" stroke="#69E7C8" stroke-width="2" stroke-linecap="round" stroke-linejoin="round"/>
<path d="M22 8.1547C23.2376 7.44017 24.7624 7.44017 26 8.1547L37.5885 14.8453C38.8261 15.5598 39.5885 16.8803 39.5885 18.3094V31.6906C39.5885 33.1197 38.8261 34.4402 37.5885 35.1547L26 41.8453C24.7624 42.5598 23.2376 42.5598 22 41.8453L10.4115 35.1547C9.17394 34.4402 8.41154 33.1197 8.41154 31.6906V18.3094C8.41154 16.8803 9.17394 15.5598 10.4115 14.8453L22 8.1547Z" fill="url(#paint0_radial_3965_8894)" stroke="#69E7C8" stroke-width="2" stroke-linecap="round" stroke-linejoin="round"/>
<path d="M24 11C24 11 19.2488 15.4975 12.625 15.4975V27.415C12.625 32.2538 19.6863 37.39 24 39C28.305 37.39 35.375 32.2538 35.375 27.415V15.4975C28.7512 15.4975 24 11 24 11Z" fill="white" stroke="#17233A" stroke-width="2" stroke-linecap="round" stroke-linejoin="round"/>
<path d="M18.75 25.1562L22.1421 28.5L29.25 21.5" stroke="#17233A" stroke-width="2" stroke-linecap="round" stroke-linejoin="round"/>
<defs>
<radialGradient id="paint0_radial_3965_8894" cx="0" cy="0" r="1" gradientUnits="userSpaceOnUse" gradientTransform="translate(13 12) rotate(59.3814) scale(28.4693)">
<stop stop-color="white" stop-opacity="0.89"/>
<stop offset="1" stop-color="white" stop-opacity="0"/>
</radialGradient>
</defs>
</svg>

<svg xmlns="http://www.w3.org/2000/svg" width="48" height="50" fill="none">
  <path fill="#17D4A7" stroke="#69E7C8" stroke-linecap="round" stroke-linejoin="round" stroke-width="2" d="M22 2.155a4 4 0 0 1 4 0l16.785 9.69a4 4 0 0 1 2 3.464v19.382a4 4 0 0 1-2 3.464L26 47.845a4 4 0 0 1-4 0l-16.785-9.69a4 4 0 0 1-2-3.464V15.309a4 4 0 0 1 2-3.464L22 2.155Z"/>
  <path fill="url(#a)" stroke="#69E7C8" stroke-linecap="round" stroke-linejoin="round" stroke-width="2" d="M22 8.155a4 4 0 0 1 4 0l11.589 6.69a4 4 0 0 1 2 3.464v13.382a4 4 0 0 1-2 3.464L26 41.845a4 4 0 0 1-4 0l-11.588-6.69a4 4 0 0 1-2-3.464V18.309a4 4 0 0 1 2-3.464L22 8.155Z"/>
  <path fill="#fff" stroke="#17233A" stroke-linecap="round" stroke-linejoin="round" stroke-width="2" d="M24 11s-4.751 4.498-11.375 4.498v11.917C12.625 32.254 19.686 37.39 24 39c4.305-1.61 11.375-6.746 11.375-11.585V15.498C28.751 15.498 24 11 24 11Z"/>
  <path stroke="#17233A" stroke-linecap="round" stroke-linejoin="round" stroke-width="2" d="m18.75 25.156 3.392 3.344 7.108-7"/>
  <defs>
    <radialGradient id="a" cx="0" cy="0" r="1" gradientTransform="rotate(59.381 -4.023 17.4) scale(28.4693)" gradientUnits="userSpaceOnUse">
      <stop stop-color="#fff" stop-opacity=".89"/>
      <stop offset="1" stop-color="#fff" stop-opacity="0"/>
    </radialGradient>
  </defs>
</svg>
